X:1
T:Donne noi siamo
T:Donne noi siamo
T:Giovanni Giacomo de Antiquis
T:Source : Secondo libro delle villanelle a 3 voci---Venetia---Figlio d'A.Gardano---1574. Editor : André Vierendeels (21/03/16).
T:Notes : Original clefs : C1, C2, C4 Editorial accidentals above the staff "Alla napolitana" Music by composers from Bari, collected by G.de Antiquis
T:©
T:©
C:Giovanni Giacomo de Antiquis
Z:©
%%score [ 1 [ 2 3 ] ]
L:1/8
Q:1/4=90
M:4/4
K:C
V:1 treble nm="Soprano" snm="S"
V:2 treble-8 nm="Tenor 1" snm="T 1"
V:3 treble-8 nm="Tenor 2" snm="T 2"
V:1
 G8 | E2 F2 D4 | C4 z2 G2 | E2 F2 G3 G | G2 G2 G2 G2 | A4 G4 | F3 F G2 D2 | E4 D4 :: z2 E2 E2 F2 | %9
w: 1)Don-|ne, noi sia-|mo, don-|ne, noi sia- mo|1)cac- cia- tor per-|fet- ti,|cac- cia- tor per-|fet- ti,|1)per cac- ciar|
w: 2)Vo-|gli- a- ti-|ci, vo-|glia- ti- ci fi-|2)dar vo- stri bo-|schet- ti,|vo- stri bo- *|schet- to,|2)che cac- cia-|
w: 3)Cac-|ciar fa- re-|mo, cac-|ciar fa- re- mo'an-|3)cor que- sti'au- ge-|let- ti,|que- sti au- ge-|let- ti,|3)per far mi-|
w: 4)Se|vo- * le-|te, se|vo- le- te con|4)noi pren- der di-|let- ti|noi pren- der di-|let- ti,|4)fa- re- mo|
 D2 C2 F4 | E6 E2 | E2 F2 G4 | F2 G2 E2 E2 | G3 F/E/ DCDE | F2 F2 E4 | F3 E D2 C2 | D4 C4 :| %17
w: sian ve- nu-|ti, à|par- chi vo-|stri con- que- sti|1)ca- * * * * * *|* ni'et a-|ni- * ma- li|no- stri.|
w: re- mo tut-|ti, à|par- chi vo-|stri con- que- sti|2)ca- * * * * * *|* ni'et a-|ni- * ma- li|no- stri.|
w: glior la cac-|cia, à|par- chi vo-|stri con- que- sti|3)ca- * * * * * *|* ni'et a-|ni- * ma- mi|no- stri.|
w: a noi ve-|der, que-|st'au- ge- let-|ti, cac- cia nei|4)no- * * * * * *|* stri bo-|schi as- sai per-|fet- ti;|
V:2
 e8 | c2 c4 B2 | c4 z2 e2 | c2 d2 e3 e | e2 e2 e2 g2- |"^#" g2 f2 g4 | d3 d e2 d2- | %7
w: 1)Don-|ne, noi sia-|mo, don-|ne, noi sia- mo-|1)cac- cia- tor per-|* fet- ti,|cav- ciar per- fet|
w: 2)Vo-|gli- a- ti-|ci, vo-|glia- ti- ci fi-|2)dar vo- stri bo-|* schet- ti,|vo- stri bo- schet-|
"^#" d2 c2 d4 :: z2 c2 c2 A2 | B2 c2 d4 | c6 c2 | c2 f4 e2 | f2 c2 c2 c2 | e3 d/c/ BABc | %14
w: _ _ ti,|1)per cac- ciar|sian ve- nu-|ti, à|par- chi vo-|stri con- que- sti|1)ca- * * * * * *|
w: * * to,|2)che cac- cia-|re- mo tut-|ti, à|par- chi vo-|stri con- que- sti|2)ca- * * * * * *|
 d2 d2 c3 B | ABcA B2 c2- | c2 B2 c4 :| %17
w: * ni'et a- ni-|ma- * * * li no-|* * stri.|
w: * ni'et a- ni-|ma- * * * li no-|* * stri|
V:3
 c8 | A2 F2 G4 | C4 z2 c2 |"^b" A2 B2 c3 c | c2 c2 c2 e2 | d4 G4 | _B3 B G2 B2 | A4 D4 :: %8
w: 3)Cac-|ciar fa- re-|mo, cac-|ciar fa- re- mo'an-|3)cor que- sti'au- ge-|let- ti,|que- sti au- ge-|let- ti,|
w: 4)Se|vo- * le-|te, se|vo- le- te con|4)noi pren- der di-|let- ti,|noi pren- der di-|let- ti,|
 z2 A2 A2 F2 | G2 A2 D4 | A6 A2 | A2 d2 c4 | F4 z2 A2 | E2 E2 G3 F/E/ | DEFG A2 A2 | F3 F G2 A2 | %16
w: 3)per far mi-|glior la cac-|cia, à|par- ch vo-|stri con-|3)que- sti ca- * *|ni- et _ _ a- ni-|ma- li- a no-|
w: 4)fa- re- mo|a noi ve-|der, que-|st'au- ge- let-|ti, cac-|4)ciar nei no- * *|* * * * stri bo-|schi as- sai per-|
 G4 C4 :| %17
w: * stri.|
w: fet- to.|

